X: 30413
T: Old Toasty
R: hornpipe
M: 4/4
K: Amajor
e2|A2 A>B c>B A<c|e2 e2 f>e c<e|a2 a2 f2 e>f|a>fe>c B2
c>B|A2 A>B c>B A<c|e2 e2 f>e c<e|a2 a2 f2 e>c|B2 A2 A2:|
z A|a2 a2 f2 e<c|e>fa>e f2 e>f|a2 a2 f2 e>f|a>fe>c B2
c>B|A2 A>B c>B A<c|e2 e2 f>e c<e|a2 a2 f2 e>c|B2 A2 A2:|

